X: 1
T: Haapavesi Waltz 
C: Keith Murphy
%C: W-54
R: waltz
M: 3/4
L: 1/8
K: D
A cA |\
"D"cd dA cA | cd dA cd | "Em7"e2 eg fd | "A"e2 A2 Bc |
"D"cd dA cA | cd dA cd | "Em7"e2 ef "A"e/d/c | "D"d3 :|]
|: e fg |\
"D"a2 ag fd | "G"g3 f2 g | "A"eA Ag fg |
e2 A2 fg | "D"a2 ag fd | "G"g3 f2 g | "A"e2 ef e/d/c | "D"d3 :|]
